X: 3973
T: Blacksmith's Schottische, The
R: barndance
M: 4/4
K: Gmajor
|:E/|D>GB<A G2- G>D|G>Bd<c B2- B>G|A>B (3cBA F>D (3DEF|1 G>F (3GFE D2- D3/2:|2 G2 G2 G2- G3/2||
|:^d/|e>c (3GAc e2 (3gfe|d>cB<c d2- d>B|c>BA>G F>DE<F|1 G2 (3ABc d2- d3/2:|2 G2 G2 G2- G3/2||

